humanity-icon-theme/Humanity/apps/24/system-users.svg

<?xml version="1.0" encoding="UTF-8" standalone="no"?>
<!-- Created with Inkscape (http://www.inkscape.org/) -->

<svg
   xmlns:svg="http://www.w3.org/2000/svg"
   xmlns="http://www.w3.org/2000/svg"
   xmlns:xlink="http://www.w3.org/1999/xlink"
   version="1.0"
   width="24"
   height="24"
   id="svg11300">
  <defs
     id="defs3">
    <linearGradient
       id="linearGradient3785">
      <stop
         id="stop3787"
         style="stop-color:#b8b8b8;stop-opacity:1"
         offset="0" />
      <stop
         id="stop3789"
         style="stop-color:#878787;stop-opacity:1"
         offset="1" />
    </linearGradient>
    <linearGradient
       id="linearGradient6954">
      <stop
         id="stop6960"
         style="stop-color:#f5f5f5;stop-opacity:1"
         offset="0" />
      <stop
         id="stop6962"
         style="stop-color:#d2d2d2;stop-opacity:1"
         offset="1" />
    </linearGradient>
    <linearGradient
       id="linearGradient3341">
      <stop
         id="stop3343"
         style="stop-color:white;stop-opacity:1"
         offset="0" />
      <stop
         id="stop3345"
         style="stop-color:white;stop-opacity:0"
         offset="1" />
    </linearGradient>
    <linearGradient
       id="linearGradient5060">
      <stop
         id="stop5062"
         style="stop-color:black;stop-opacity:1"
         offset="0" />
      <stop
         id="stop5064"
         style="stop-color:black;stop-opacity:0"
         offset="1" />
    </linearGradient>
    <radialGradient
       cx="30"
       cy="33.1875"
       r="4.6875"
       fx="30"
       fy="33.1875"
       id="radialGradient2922"
       xlink:href="#linearGradient5060"
       gradientUnits="userSpaceOnUse"
       gradientTransform="matrix(0.81491924,-3.8844793e-7,1.136461e-7,0.25340272,-9.9475804,6.5902095)" />
    <linearGradient
       x1="22"
       y1="39"
       x2="17"
       y2="37.4375"
       id="linearGradient2928"
       xlink:href="#linearGradient5060"
       gradientUnits="userSpaceOnUse"
       gradientTransform="matrix(0.74999995,0,0,0.43478262,-5.1276295,2.9173914)" />
    <radialGradient
       cx="26.375898"
       cy="12.31301"
       r="8"
       fx="26.375898"
       fy="12.31301"
       id="radialGradient2931"
       xlink:href="#linearGradient6954"
       gradientUnits="userSpaceOnUse"
       gradientTransform="matrix(0.86552039,-0.07102871,0.06760608,0.84907396,-11.038912,-4.204803)" />
    <linearGradient
       x1="30"
       y1="5"
       x2="30"
       y2="44.678879"
       id="linearGradient2933"
       xlink:href="#linearGradient3785"
       gradientUnits="userSpaceOnUse"
       gradientTransform="matrix(0.52770326,0,0,0.53573244,-1.3310981,-1.4043014)" />
    <radialGradient
       cx="24.999998"
       cy="28.659998"
       r="16"
       fx="24.999998"
       fy="28.659998"
       id="radialGradient2939"
       xlink:href="#linearGradient6954"
       gradientUnits="userSpaceOnUse"
       gradientTransform="matrix(0.67742373,0,0,0.19285627,-5.0162555,9.9977318)" />
    <linearGradient
       x1="30"
       y1="25.084745"
       x2="30"
       y2="45"
       id="linearGradient2941"
       xlink:href="#linearGradient3785"
       gradientUnits="userSpaceOnUse"
       gradientTransform="matrix(0.51613236,0,0,0.51667107,-0.98397254,-0.49180897)" />
    <radialGradient
       cx="32"
       cy="41.5"
       r="21"
       fx="32"
       fy="41.5"
       id="radialGradient2944"
       xlink:href="#linearGradient5060"
       gradientUnits="userSpaceOnUse"
       gradientTransform="matrix(0.45238095,0,0,0.14285715,0.02380949,15.071429)" />
    <linearGradient
       x1="22"
       y1="39"
       x2="17"
       y2="37.4375"
       id="linearGradient3722"
       xlink:href="#linearGradient5060"
       gradientUnits="userSpaceOnUse"
       gradientTransform="matrix(-0.74999995,0,0,0.43478262,34.15,2.9173914)" />
    <linearGradient
       x1="30.00001"
       y1="6.333993"
       x2="30.00001"
       y2="24.913183"
       id="linearGradient3734"
       xlink:href="#linearGradient3341"
       gradientUnits="userSpaceOnUse"
       gradientTransform="matrix(0.52770326,0,0,0.53573244,-1.3310981,-1.4043014)" />
    <linearGradient
       x1="29.996229"
       y1="21.440447"
       x2="29.996229"
       y2="43.531425"
       id="linearGradient3756"
       xlink:href="#linearGradient3341"
       gradientUnits="userSpaceOnUse"
       gradientTransform="matrix(0.51613236,0,0,0.51667107,-0.98397254,-0.49180897)" />
    <linearGradient
       id="linearGradient5060-9">
      <stop
         id="stop5062-9"
         style="stop-color:black;stop-opacity:1"
         offset="0" />
      <stop
         id="stop5064-1"
         style="stop-color:black;stop-opacity:0"
         offset="1" />
    </linearGradient>
    <linearGradient
       x1="29.998489"
       y1="6.7808113"
       x2="30"
       y2="26.2834"
       id="linearGradient4080"
       xlink:href="#linearGradient3341"
       gradientUnits="userSpaceOnUse"
       gradientTransform="matrix(0.33334585,0,0,0.36215328,-2.0003758,2.4813805)" />
    <linearGradient
       x1="29.968306"
       y1="21.68708"
       x2="30.000004"
       y2="43.308842"
       id="linearGradient4118"
       xlink:href="#linearGradient3341"
       gradientUnits="userSpaceOnUse"
       gradientTransform="matrix(0.41935736,0,0,0.41979504,-4.5807222,1.8191637)" />
    <radialGradient
       cx="32"
       cy="41.5"
       r="21"
       fx="32"
       fy="41.5"
       id="radialGradient4148"
       xlink:href="#linearGradient5060-9"
       gradientUnits="userSpaceOnUse"
       gradientTransform="matrix(0.35714286,0,0,0.14285716,-3.9285714,13.072062)" />
    <linearGradient
       x1="22"
       y1="39"
       x2="17"
       y2="37.4375"
       id="linearGradient4168"
       xlink:href="#linearGradient5060"
       gradientUnits="userSpaceOnUse"
       gradientTransform="matrix(0.61956519,0,0,0.35916826,-8.1665637,4.2839318)" />
    <radialGradient
       cx="24.999998"
       cy="28.659998"
       r="16"
       fx="24.999998"
       fy="28.659998"
       id="radialGradient4170"
       xlink:href="#linearGradient6954"
       gradientUnits="userSpaceOnUse"
       gradientTransform="matrix(0.55040653,0,0,0.15669563,-7.8569507,10.341911)" />
    <linearGradient
       x1="30"
       y1="25.084745"
       x2="30"
       y2="45"
       id="linearGradient4172"
       xlink:href="#linearGradient3785"
       gradientUnits="userSpaceOnUse"
       gradientTransform="matrix(0.41935736,0,0,0.41979504,-4.5807222,1.8191637)" />
    <linearGradient
       x1="30"
       y1="5"
       x2="30"
       y2="44.678879"
       id="linearGradient4174"
       xlink:href="#linearGradient3785"
       gradientUnits="userSpaceOnUse"
       gradientTransform="matrix(0.33334585,0,0,0.36215328,-2.0003758,2.4813805)" />
    <radialGradient
       cx="26.375898"
       cy="12.31301"
       r="8"
       fx="26.375898"
       fy="12.31301"
       id="radialGradient4176"
       xlink:href="#linearGradient6954"
       gradientUnits="userSpaceOnUse"
       gradientTransform="matrix(0.54674217,-0.04801515,0.04270621,0.57397107,-8.1327232,0.58825117)" />
  </defs>
  <g
     id="g4150">
    <g
       id="g4140">
      <path
         d="M 15,19.000632 A 7.5,3 0 0 1 4.0027698e-8,19.000632 7.5,3 0 1 1 15,19.000632 z"
         id="path3823-1"
         style="opacity:0.8;fill:url(#radialGradient4148);fill-opacity:1;stroke:none" />
      <path
         d="M 6.513,10.424959 6.457,12.94373 C 5.2363792,13.957484 1.9146379,14.413014 1.9193169,15.4625 l -0.4193572,3.148465 c 0,1.043308 2.9101663,1.889075 6.5000399,1.889075 3.5898714,0 6.5000404,-0.845767 6.5000404,-1.889075 L 14.080681,15.4625 C 14.075781,14.564282 10.735651,13.99322 9.53,12.94373 l -0.043,-2.518771 -2.974,0 z"
         id="path3766-9"
         style="fill:url(#radialGradient4170);fill-opacity:1;stroke:url(#linearGradient4172);stroke-width:0.99991947;stroke-miterlimit:4;stroke-opacity:1;stroke-dasharray:none" />
      <path
         d="m 7.5,11.4375 c -0.08094,0.691654 0.1318657,1.450708 -0.2235148,2.087545 -0.5288217,0.667037 -1.389003,0.904775 -2.1389656,1.229786 -0.7736519,0.277628 -1.5744675,0.510298 -2.2797645,0.944145 0.06985,0.137296 -0.065526,0.621724 -0.078159,0.907996 -0.082782,0.66226 -0.1655648,1.324519 -0.2483472,1.986778 0.6400316,0.191418 1.2404938,0.510821 1.9149171,0.578815 2.3665096,0.469752 4.8219149,0.415371 7.191225,-0.0036 0.601839,-0.114874 1.179595,-0.331813 1.731993,-0.587727 0.184056,-0.31394 -0.04004,-0.704525 -0.03164,-1.0593 C 13.26683,16.94168 13.195915,16.361465 13.125,15.78125 11.736562,14.916552 9.9650672,14.747924 8.7644547,13.570405 8.3409285,12.960694 8.6020186,12.193261 8.4915178,11.512817 8.2293671,11.340917 7.855393,11.476623 7.5405916,11.4375 l -0.029974,0 -0.010617,0 z"
         id="path4094"
         style="fill:none;stroke:url(#linearGradient4118);stroke-width:0.99991947;stroke-miterlimit:4;stroke-opacity:1;stroke-dasharray:none" />
      <path
         d="m 7.9999999,4.4732229 c -1.3807633,0 -2.5000936,1.1349914 -2.5000936,2.5350727 0.010821,0.5181431 0.051513,1.1336776 0.3333444,2.5350729 0.1666733,0.5432295 1.6533164,1.9918425 1.6667298,2.1729185 0.3232373,0.181075 0.8333645,0.181075 1.1667122,0 0,-0.181076 1.3333833,-1.629689 1.5000553,-2.1729185 0.317138,-1.456468 0.316333,-1.9918428 0.333345,-2.5350729 0,-1.4000813 -1.1193297,-2.5350727 -2.5000931,-2.5350727 z"
         id="path3764-3"
         style="fill:url(#radialGradient4176);fill-opacity:1;stroke:url(#linearGradient4174);stroke-width:0.99981266;stroke-miterlimit:4;stroke-opacity:1;stroke-dasharray:none" />
      <path
         d="M 4.8443056,19.8 C 3.3806764,19.088058 4.078603,17.50748 4.22474,16.495652 3.6051749,17.213989 3.9171305,19.221739 2.678,19.221739 3.5040869,19.515513 4.0695756,19.71588 4.8443056,19.8 z"
         id="path3848-9"
         style="opacity:0.5;fill:url(#linearGradient4168);fill-opacity:1;stroke:none" />
      <path
         d="M 8,5.4375 C 7.2011494,5.4149723 6.4714864,6.1276223 6.4745866,6.9273472 6.4622824,7.5772581 6.5980797,8.218564 6.7052603,8.8567444 6.7329944,9.1071067 6.8044753,9.3386069 6.9869607,9.5208284 7.3214047,9.9705041 7.6934675,10.391109 8.0625,10.8125 8.4411508,10.315283 8.8285568,9.824363 9.1875,9.3125 9.3400569,8.4660789 9.5793589,7.6163122 9.5141846,6.748773 9.4152107,6.0221837 8.7407332,5.4168489 8,5.4375 z"
         id="path4066"
         style="fill:none;stroke:url(#linearGradient4080);stroke-width:0.99981266;stroke-miterlimit:4;stroke-opacity:1;stroke-dasharray:none" />
    </g>
    <g
       id="g3758">
      <path
         d="M 24,21 A 9.5,3 0 0 1 5,21 9.5,3 0 1 1 24,21 z"
         id="path3823"
         style="opacity:0.8;fill:url(#radialGradient2944);fill-opacity:1;stroke:none" />
      <path
         d="m 12.177403,10.099947 c 0.23753,1.124653 0.370116,1.975373 0.177421,3.100026 -1.502303,1.247697 -5.3445034,1.80835 -5.3387447,3.100025 l -0.5161321,3.875036 c 0,1.284073 3.5817448,2.325019 8.0000528,2.325019 4.418307,0 8.000053,-1.040946 8.000053,-2.325019 l -0.516134,-3.875036 c -0.0061,-1.105498 -3.870993,-1.808346 -5.354873,-3.100025 -0.126751,-1.043848 -0.02586,-2.056174 0.193549,-3.100026 l -4.645192,0 z"
         id="path3766"
         style="fill:url(#radialGradient2939);fill-opacity:1;stroke:url(#linearGradient2941);stroke-width:0.99989432;stroke-miterlimit:4;stroke-opacity:1;stroke-dasharray:none" />
      <path
         d="m 13.21875,11.09375 c 0.08722,0.856711 0.3354,1.801007 -0.04818,2.615857 -0.642554,0.728465 -1.594602,1.093826 -2.46738,1.472715 C 9.3226847,15.510467 7.7137266,16 7.9252179,16.998373 7.7834779,18.061416 7.641739,19.124458 7.5,20.1875 c 0.3063993,0.160613 1.0809439,0.584904 1.625,0.6875 2.520767,0.666947 5.16785,0.725367 7.754874,0.519516 1.511711,-0.166212 3.088649,-0.352665 4.432626,-1.113266 0.335436,-0.07362 0.107122,-0.316411 0.114936,-0.654915 -0.132062,-1.021278 -0.264124,-2.042557 -0.396186,-3.063835 -0.587648,-0.5027 -1.391296,-0.753519 -2.106391,-1.064577 -1.082782,-0.447299 -2.251468,-0.853003 -3.086912,-1.707994 -0.391617,-0.689558 -0.161473,-1.538743 -0.107324,-2.28649 0.259681,-0.52835 -0.223399,-0.401903 -0.552932,-0.409689 -0.652981,0 -1.305961,0 -1.958941,0 z"
         id="path3742"
         style="fill:none;stroke:url(#linearGradient3756);stroke-width:0.99989432;stroke-miterlimit:4;stroke-opacity:1" />
      <path
         d="m 14.5,1.5422262 c -2.185818,0 -3.957774,1.67899 -3.957774,3.7501272 0.01713,0.7664876 0.08155,1.6770462 0.527701,3.750127 0.263852,0.8035986 2.617283,2.9465296 2.638517,3.2143946 0.511701,0.267865 1.319258,0.267865 1.846964,0 0,-0.267865 2.110813,-2.410796 2.374664,-3.2143946 0.502046,-2.1545496 0.500773,-2.9465283 0.527702,-3.750127 0,-2.0711372 -1.771956,-3.7501272 -3.957774,-3.7501272 z"
         id="path3764"
         style="fill:url(#radialGradient2931);fill-opacity:1;stroke:url(#linearGradient2933);stroke-width:1.08445191;stroke-miterlimit:4;stroke-opacity:1;stroke-dasharray:none" />
      <path
         d="M 10.62237,21.7 C 8.8506083,20.838176 9.6954668,18.924844 9.8723695,17.7 9.1223696,18.569566 9.5000001,21 8,21 c 1,0.355621 1.6845389,0.59817 2.62237,0.7 z"
         id="path3848"
         style="opacity:0.5;fill:url(#linearGradient2928);fill-opacity:1;stroke:none" />
      <path
         d="M 12,13.35048 C 12.366027,14.309818 13.343418,15 14.5,15 c 1.156582,0 2.133972,-0.690182 2.5,-1.64952 l -5,0 z"
         id="path3833"
         style="opacity:0.3;fill:url(#radialGradient2922);fill-opacity:1;stroke:none" />
      <path
         d="m 18.4,21.7 c 1.771762,-0.861824 0.926903,-2.775156 0.750001,-4 C 19.9,18.569566 19.52237,21 21.02237,21 c -1,0.355621 -1.684539,0.59817 -2.62237,0.7 z"
         id="path3720"
         style="opacity:0.5;fill:url(#linearGradient3722);fill-opacity:1;stroke:none" />
      <path
         d="m 14.5,2.53125 c -1.666616,0 -2.9513,1.2303173 -2.96875,2.71875 1.39e-4,0.00624 -1.45e-4,0.024997 0,0.03125 0.01647,0.7081029 0.08609,1.5272795 0.5,3.46875 -0.0051,-0.03667 0.09671,0.2041393 0.3125,0.46875 0.232433,0.2850235 0.566603,0.6083312 0.875,0.9375 0.308397,0.329169 0.598847,0.668975 0.84375,0.9375 0.09435,0.103448 0.171956,0.186905 0.25,0.28125 0.166811,0.03524 0.415249,0.03212 0.625,0 0.06182,-0.08397 0.114751,-0.159431 0.1875,-0.25 0.218248,-0.271707 0.473896,-0.575993 0.75,-0.90625 0.276104,-0.3302573 0.569207,-0.6813941 0.78125,-0.96875 0.197562,-0.2677316 0.307312,-0.503144 0.3125,-0.5 0.460701,-1.9997828 0.473735,-2.6695721 0.5,-3.46875 0,-0.010182 1.19e-4,-0.021091 0,-0.03125 C 17.4513,3.7615673 16.166616,2.53125 14.5,2.53125 z"
         id="path3730"
         style="fill:none;stroke:url(#linearGradient3734);stroke-width:1.08445191;stroke-miterlimit:4;stroke-opacity:1;stroke-dasharray:none" />
    </g>
  </g>
</svg>

<?xml version="1.0" encoding="UTF-8" standalone="no"?>
<!-- Created with Inkscape (http://www.inkscape.org/) -->
<svg id="svg11300" xmlns="http://www.w3.org/2000/svg" height="24" width="24" version="1.0" xmlns:xlink="http://www.w3.org/1999/xlink">
 <defs id="defs3">
  <linearGradient id="linearGradient3785">
   <stop id="stop3787" style="stop-color:#b8b8b8" offset="0"/>
   <stop id="stop3789" style="stop-color:#878787" offset="1"/>
  </linearGradient>
  <linearGradient id="linearGradient6954">
   <stop id="stop6960" style="stop-color:#f5f5f5" offset="0"/>
   <stop id="stop6962" style="stop-color:#d2d2d2" offset="1"/>
  </linearGradient>
  <linearGradient id="linearGradient3341">
   <stop id="stop3343" style="stop-color:#fff" offset="0"/>
   <stop id="stop3345" style="stop-color:#fff;stop-opacity:0" offset="1"/>
  </linearGradient>
  <linearGradient id="linearGradient5060">
   <stop id="stop5062" offset="0"/>
   <stop id="stop5064" style="stop-opacity:0" offset="1"/>
  </linearGradient>
  <radialGradient id="radialGradient2922" xlink:href="#linearGradient5060" gradientUnits="userSpaceOnUse" cy="33.188" cx="30" gradientTransform="matrix(.81492 -3.8845e-7 1.1365e-7 .25340 -9.9476 6.5902)" r="4.6875"/>
  <linearGradient id="linearGradient2928" y2="37.438" xlink:href="#linearGradient5060" gradientUnits="userSpaceOnUse" x2="17" gradientTransform="matrix(0.75 0 0 .43478 -5.1276 2.9174)" y1="39" x1="22"/>
  <radialGradient id="radialGradient2931" xlink:href="#linearGradient6954" gradientUnits="userSpaceOnUse" cy="12.313" cx="26.376" gradientTransform="matrix(.86552 -.071029 .067606 .84907 -11.039 -4.2048)" r="8"/>
  <linearGradient id="linearGradient2933" y2="44.679" xlink:href="#linearGradient3785" gradientUnits="userSpaceOnUse" x2="30" gradientTransform="matrix(.52770 0 0 .53573 -1.3311 -1.4043)" y1="5" x1="30"/>
  <radialGradient id="radialGradient2939" xlink:href="#linearGradient6954" gradientUnits="userSpaceOnUse" cy="28.66" cx="25" gradientTransform="matrix(.67742 0 0 .19286 -5.0163 9.9977)" r="16"/>
  <linearGradient id="linearGradient2941" y2="45" xlink:href="#linearGradient3785" gradientUnits="userSpaceOnUse" x2="30" gradientTransform="matrix(.51613 0 0 .51667 -.98397 -.49181)" y1="25.085" x1="30"/>
  <radialGradient id="radialGradient2944" xlink:href="#linearGradient5060" gradientUnits="userSpaceOnUse" cy="41.5" cx="32" gradientTransform="matrix(.45238 0 0 .14286 .023809 15.071)" r="21"/>
  <linearGradient id="linearGradient3722" y2="37.438" xlink:href="#linearGradient5060" gradientUnits="userSpaceOnUse" x2="17" gradientTransform="matrix(-0.75 0 0 .43478 34.15 2.9174)" y1="39" x1="22"/>
  <linearGradient id="linearGradient3734" y2="24.913" xlink:href="#linearGradient3341" gradientUnits="userSpaceOnUse" x2="30" gradientTransform="matrix(.52770 0 0 .53573 -1.3311 -1.4043)" y1="6.334" x1="30"/>
  <linearGradient id="linearGradient3756" y2="43.531" xlink:href="#linearGradient3341" gradientUnits="userSpaceOnUse" x2="29.996" gradientTransform="matrix(.51613 0 0 .51667 -.98397 -.49181)" y1="21.44" x1="29.996"/>
  <linearGradient id="linearGradient4080" y2="26.283" xlink:href="#linearGradient3341" gradientUnits="userSpaceOnUse" x2="30" gradientTransform="matrix(.33335 0 0 .36215 -2.0004 2.4814)" y1="6.7808" x1="29.998"/>
  <linearGradient id="linearGradient4118" y2="43.309" xlink:href="#linearGradient3341" gradientUnits="userSpaceOnUse" x2="30" gradientTransform="matrix(.41936 0 0 .41980 -4.5807 1.8192)" y1="21.687" x1="29.968"/>
  <radialGradient id="radialGradient4148" gradientUnits="userSpaceOnUse" cy="41.5" cx="32" gradientTransform="matrix(.35714 0 0 .14286 -3.9286 13.072)" r="21">
   <stop id="stop5062-9" offset="0"/>
   <stop id="stop5064-1" style="stop-opacity:0" offset="1"/>
  </radialGradient>
  <linearGradient id="linearGradient4168" y2="37.438" xlink:href="#linearGradient5060" gradientUnits="userSpaceOnUse" x2="17" gradientTransform="matrix(.61957 0 0 .35917 -8.1666 4.2839)" y1="39" x1="22"/>
  <radialGradient id="radialGradient4170" xlink:href="#linearGradient6954" gradientUnits="userSpaceOnUse" cy="28.66" cx="25" gradientTransform="matrix(.55041 0 0 .15670 -7.857 10.342)" r="16"/>
  <linearGradient id="linearGradient4172" y2="45" xlink:href="#linearGradient3785" gradientUnits="userSpaceOnUse" x2="30" gradientTransform="matrix(.41936 0 0 .41980 -4.5807 1.8192)" y1="25.085" x1="30"/>
  <linearGradient id="linearGradient4174" y2="44.679" xlink:href="#linearGradient3785" gradientUnits="userSpaceOnUse" x2="30" gradientTransform="matrix(.33335 0 0 .36215 -2.0004 2.4814)" y1="5" x1="30"/>
  <radialGradient id="radialGradient4176" xlink:href="#linearGradient6954" gradientUnits="userSpaceOnUse" cy="12.313" cx="26.376" gradientTransform="matrix(.54674 -.048015 .042706 .57397 -8.1327 .58825)" r="8"/>
 </defs>
 <g id="g4150">
  <g id="g4140">
   <path id="path3823-1" style="opacity:.8;fill:url(#radialGradient4148)" d="m15 19.001a7.5 3 0 0 1 -15 0 7.5 3 0 1 1 15 0z"/>
   <path id="path3766-9" style="stroke:url(#linearGradient4172);stroke-width:.99992;fill:url(#radialGradient4170)" d="m6.513 10.425-0.056 2.519c-1.2206 1.013-4.5424 1.469-4.5377 2.518l-0.41936 3.1485c0 1.0433 2.9102 1.8891 6.5 1.8891 3.5899 0 6.5-0.84577 6.5-1.8891l-0.419-3.148c-0.005-0.898-3.345-1.469-4.551-2.518l-0.043-2.5188h-2.974z"/>
   <path id="path4094" style="stroke:url(#linearGradient4118);stroke-width:.99992;fill:none" d="m7.5 11.438c-0.08094 0.69165 0.13187 1.4507-0.22351 2.0875-0.52882 0.66704-1.389 0.90478-2.139 1.2298-0.77365 0.27763-1.5745 0.5103-2.2798 0.94414 0.06985 0.1373-0.065526 0.62172-0.078159 0.908l-0.24835 1.9868c0.64003 0.19142 1.2405 0.51082 1.9149 0.57882 2.3665 0.46975 4.8219 0.41537 7.1912-0.0036 0.60184-0.11487 1.1796-0.33181 1.732-0.58773 0.18406-0.31394-0.04004-0.70452-0.03164-1.0593-0.071-0.58-0.142-1.161-0.213-1.741-1.388-0.864-3.1599-1.033-4.3605-2.211-0.4236-0.609-0.1625-1.377-0.273-2.057-0.2621-0.172-0.6361-0.036-0.9509-0.075h-0.029974-0.010617z"/>
   <path id="path3764-3" style="stroke:url(#linearGradient4174);stroke-width:.99981;fill:url(#radialGradient4176)" d="m8 4.4732c-1.3808 0-2.5001 1.135-2.5001 2.5351 0.010821 0.51814 0.051513 1.1337 0.33334 2.5351 0.16667 0.54323 1.6533 1.9918 1.6667 2.1729 0.32324 0.18108 0.83336 0.18108 1.1667 0 0-0.18108 1.3334-1.6297 1.5001-2.1729 0.31714-1.4565 0.31633-1.9918 0.33334-2.5351 0-1.4001-1.1193-2.5351-2.5001-2.5351z"/>
   <path id="path3848-9" style="opacity:.5;fill:url(#linearGradient4168)" d="m4.8443 19.8c-1.4636-0.712-0.7657-2.293-0.6196-3.304-0.6195 0.718-0.3076 2.726-1.5467 2.726 0.8261 0.294 1.3916 0.494 2.1663 0.578z"/>
   <path id="path4066" style="stroke:url(#linearGradient4080);stroke-width:.99981;fill:none" d="m8 5.4375c-0.7989-0.0225-1.5285 0.6901-1.5254 1.4898-0.0123 0.65 0.1235 1.2913 0.2307 1.9294 0.0277 0.2504 0.0992 0.4819 0.2817 0.6641 0.3344 0.4497 0.7065 0.8702 1.0755 1.2912 0.3787-0.497 0.7661-0.9876 1.125-1.4995 0.1526-0.8464 0.3919-1.6962 0.3267-2.5637-0.099-0.7266-0.7735-1.332-1.5142-1.3113z"/>
  </g>
  <g id="g3758">
   <path id="path3823" style="opacity:.8;fill:url(#radialGradient2944)" d="m24 21a9.5 3 0 0 1 -19 0 9.5 3 0 1 1 19 0z"/>
   <path id="path3766" style="stroke:url(#linearGradient2941);stroke-width:.99989;fill:url(#radialGradient2939)" d="m12.177 10.1c0.23753 1.1247 0.37012 1.9754 0.17742 3.1-1.5023 1.2477-5.3445 1.8084-5.3387 3.1l-0.51613 3.875c0 1.2841 3.5817 2.325 8.0001 2.325 4.4183 0 8.0001-1.0409 8.0001-2.325l-0.51613-3.875c-0.0061-1.1055-3.871-1.8083-5.3549-3.1-0.12675-1.0438-0.02586-2.0562 0.19355-3.1h-4.6452z"/>
   <path id="path3742" style="stroke:url(#linearGradient3756);stroke-width:.99989;fill:none" d="m13.219 11.094c0.08722 0.85671 0.3354 1.801-0.04818 2.6159-0.64255 0.72846-1.5946 1.0938-2.4674 1.4727-1.3803 0.327-2.9893 0.817-2.7778 1.815-0.1417 1.063-0.2835 2.126-0.4252 3.19 0.3064 0.16061 1.0809 0.5849 1.625 0.6875 2.5208 0.66695 5.1678 0.72537 7.7549 0.51952 1.5117-0.16621 3.0886-0.35266 4.4326-1.1133 0.33544-0.07362 0.10712-0.31641 0.11494-0.65492-0.13206-1.0213-0.26412-2.0426-0.39619-3.0638-0.58765-0.5027-1.3913-0.75352-2.1064-1.0646-1.0828-0.4473-2.2515-0.853-3.0869-1.708-0.39162-0.68956-0.16147-1.5387-0.10732-2.2865 0.25968-0.52835-0.2234-0.4019-0.55293-0.40969h-1.9589z"/>
   <path id="path3764" style="stroke:url(#linearGradient2933);stroke-width:1.0845;fill:url(#radialGradient2931)" d="m14.5 1.5422c-2.1858 0-3.9578 1.679-3.9578 3.7501 0.01713 0.76649 0.08155 1.677 0.5277 3.7501 0.26385 0.8036 2.6173 2.9465 2.6385 3.2144 0.5117 0.26786 1.3193 0.26786 1.847 0 0-0.26786 2.1108-2.4108 2.3747-3.2144 0.50205-2.1545 0.50077-2.9465 0.5277-3.7501 0-2.0711-1.772-3.7501-3.9578-3.7501z"/>
   <path id="path3848" style="opacity:.5;fill:url(#linearGradient2928)" d="m10.622 21.7c-1.7714-0.862-0.9265-2.775-0.7496-4-0.75 0.87-0.3724 3.3-1.8724 3.3 1 0.35562 1.6845 0.59817 2.6224 0.7z"/>
   <path id="path3833" style="opacity:.3;fill:url(#radialGradient2922)" d="m12 13.35c0.366 0.96 1.343 1.65 2.5 1.65 1.1566 0 2.134-0.69018 2.5-1.6495h-5z"/>
   <path id="path3720" style="opacity:.5;fill:url(#linearGradient3722)" d="m18.4 21.7c1.7718-0.86182 0.9269-2.7752 0.75-4 0.75 0.87 0.372 3.3 1.872 3.3-1 0.35562-1.6845 0.59817-2.6224 0.7z"/>
   <path id="path3730" style="stroke:url(#linearGradient3734);stroke-width:1.0845;fill:none" d="m14.5 2.5312c-1.6666 0-2.9513 1.2303-2.9688 2.7188 0.000139 0.00624-0.000145 0.024997 0 0.03125 0.01647 0.7081 0.08609 1.5273 0.5 3.4688-0.0051-0.03667 0.09671 0.20414 0.3125 0.46875 0.23243 0.28502 0.5666 0.60833 0.875 0.9375s0.59885 0.66898 0.84375 0.9375c0.09435 0.10345 0.17196 0.1869 0.25 0.28125 0.16681 0.03524 0.41525 0.03212 0.625 0 0.06182-0.08397 0.11475-0.15943 0.1875-0.25 0.21825-0.27171 0.4739-0.57599 0.75-0.90625s0.56921-0.68139 0.78125-0.96875c0.19756-0.26773 0.30731-0.50314 0.3125-0.5 0.4607-1.9998 0.47374-2.6696 0.5-3.4688 0-0.010182 0.000119-0.021091 0-0.03125-0.018-1.4884-1.302-2.7188-2.969-2.7188z"/>
  </g>
 </g>
</svg>
